; G-Code generated by Simplify3D(R) Version 4.0.1
; Jul 24, 2024 at 9:37:09 PM
; Settings Summary
;   processName,Process1
;   applyToModels,1
;   profileName,Default (modified)
;   profileVersion,2017-03-01 08:00:00
;   baseProfile,
;   printMaterial,PLA
;   printQuality,Medium
;   printExtruders,
;   extruderName,Primary Extruder
;   extruderToolheadNumber,0
;   extruderDiameter,0.6
;   extruderAutoWidth,0
;   extruderWidth,0.6
;   extrusionMultiplier,0.9
;   extruderUseRetract,1
;   extruderRetractionDistance,1
;   extruderExtraRestartDistance,0
;   extruderRetractionZLift,0
;   extruderRetractionSpeed,1800
;   extruderUseCoasting,0
;   extruderCoastingDistance,0.2
;   extruderUseWipe,0
;   extruderWipeDistance,5
;   primaryExtruder,0
;   layerHeight,0.2
;   topSolidLayers,3
;   bottomSolidLayers,3
;   perimeterOutlines,2
;   printPerimetersInsideOut,1
;   startPointOption,2
;   startPointOriginX,0
;   startPointOriginY,0
;   sequentialIslands,0
;   spiralVaseMode,0
;   firstLayerHeightPercentage,90
;   firstLayerWidthPercentage,100
;   firstLayerUnderspeed,0.5
;   useRaft,1
;   raftExtruder,0
;   raftTopLayers,3
;   raftBaseLayers,2
;   raftOffset,3
;   raftSeparationDistance,0.14
;   raftTopInfill,100
;   aboveRaftSpeedMultiplier,0.3
;   useSkirt,1
;   skirtExtruder,0
;   skirtLayers,1
;   skirtOutlines,2
;   skirtOffset,4
;   usePrimePillar,0
;   primePillarExtruder,999
;   primePillarWidth,12
;   primePillarLocation,7
;   primePillarSpeedMultiplier,1
;   useOozeShield,0
;   oozeShieldExtruder,999
;   oozeShieldOffset,2
;   oozeShieldOutlines,1
;   oozeShieldSidewallShape,1
;   oozeShieldSidewallAngle,30
;   oozeShieldSpeedMultiplier,1
;   infillExtruder,0
;   internalInfillPattern,Rectilinear
;   externalInfillPattern,Rectilinear
;   infillPercentage,35
;   outlineOverlapPercentage,15
;   infillExtrusionWidthPercentage,100
;   minInfillLength,5
;   infillLayerInterval,1
;   internalInfillAngles,45,-45
;   overlapInternalInfillAngles,0
;   externalInfillAngles,45,-45
;   generateSupport,0
;   supportExtruder,0
;   supportInfillPercentage,30
;   supportExtraInflation,0
;   supportBaseLayers,0
;   denseSupportExtruder,0
;   denseSupportLayers,0
;   denseSupportInfillPercentage,70
;   supportLayerInterval,1
;   supportHorizontalPartOffset,0.3
;   supportUpperSeparationLayers,1
;   supportLowerSeparationLayers,1
;   supportType,0
;   supportGridSpacing,4
;   maxOverhangAngle,45
;   supportAngles,0
;   temperatureName,Primary Extruder
;   temperatureNumber,0
;   temperatureSetpointCount,1
;   temperatureSetpointLayers,1
;   temperatureSetpointTemperatures,190
;   temperatureStabilizeAtStartup,1
;   temperatureHeatedBed,0
;   temperatureRelayBetweenLayers,0
;   temperatureRelayBetweenLoops,0
;   fanLayers,1,2
;   fanSpeeds,0,100
;   blipFanToFullPower,0
;   adjustSpeedForCooling,1
;   minSpeedLayerTime,15
;   minCoolingSpeedSlowdown,20
;   increaseFanForCooling,0
;   minFanLayerTime,45
;   maxCoolingFanSpeed,100
;   increaseFanForBridging,0
;   bridgingFanSpeed,100
;   use5D,1
;   relativeEdistances,0
;   allowEaxisZeroing,1
;   independentExtruderAxes,0
;   includeM10123,0
;   stickySupport,1
;   applyToolheadOffsets,0
;   gcodeXoffset,0
;   gcodeYoffset,0
;   gcodeZoffset,0
;   overrideMachineDefinition,0
;   machineTypeOverride,0
;   strokeXoverride,200
;   strokeYoverride,200
;   strokeZoverride,200
;   originOffsetXoverride,0
;   originOffsetYoverride,0
;   originOffsetZoverride,0
;   homeXdirOverride,-1
;   homeYdirOverride,-1
;   homeZdirOverride,-1
;   flipXoverride,1
;   flipYoverride,-1
;   flipZoverride,1
;   toolheadOffsets,0,0|0,0|0,0|0,0|0,0|0,0
;   overrideFirmwareConfiguration,0
;   firmwareTypeOverride,RepRap (Marlin/Repetier/Sprinter)
;   GPXconfigOverride,r2
;   baudRateOverride,115200
;   overridePrinterModels,0
;   printerModelsOverride
;   startingGcode,G28 ; home all axes
;   layerChangeGcode,
;   retractionGcode,
;   toolChangeGcode,
;   endingGcode,M104 S0 ; turn off extruder,M140 S0 ; turn off bed,M84 ; disable motors
;   exportFileFormat,gcode
;   celebration,0
;   celebrationSong,Random Song
;   postProcessing,
;   defaultSpeed,3600
;   outlineUnderspeed,0.5
;   solidInfillUnderspeed,0.8
;   supportUnderspeed,0.8
;   rapidXYspeed,4800
;   rapidZspeed,1000
;   minBridgingArea,50
;   bridgingExtraInflation,0
;   bridgingExtrusionMultiplier,1
;   bridgingSpeedMultiplier,1
;   useFixedBridgingAngle,0
;   fixedBridgingAngle,0
;   applyBridgingToPerimeters,0
;   filamentDiameters,1.75|1.75|1.75|1.75|1.75|1.75
;   filamentPricesPerKg,46|46|46|46|46|46
;   filamentDensities,1.25|1.25|1.25|1.25|1.25|1.25
;   useMinPrintHeight,0
;   minPrintHeight,0
;   useMaxPrintHeight,0
;   maxPrintHeight,0
;   useDiaphragm,0
;   diaphragmLayerInterval,20
;   robustSlicing,1
;   mergeAllIntoSolid,0
;   onlyRetractWhenCrossingOutline,1
;   retractBetweenLayers,1
;   useRetractionMinTravel,0
;   retractionMinTravel,3
;   retractWhileWiping,0
;   onlyWipeOutlines,1
;   avoidCrossingOutline,0
;   maxMovementDetourFactor,3
;   toolChangeRetractionDistance,12
;   toolChangeExtraRestartDistance,-0.5
;   toolChangeRetractionSpeed,600
;   externalThinWallType,0
;   internalThinWallType,2
;   thinWallAllowedOverlapPercentage,10
;   singleExtrusionMinLength,1
;   singleExtrusionMinPrintingWidthPercentage,50
;   singleExtrusionMaxPrintingWidthPercentage,200
;   singleExtrusionEndpointExtension,0.2
;   horizontalSizeCompensation,0
G90
M82
M106 S0
M104 S190 T0
M109 S190 T0
G28 ; home all axes
G92 E0
G1 E-1.0000 F1800
G1 Z0.675 F1000
; process Process1
; layer 1, Z = 0.675
T0
; tool H0.750 W0.600
; skirt
G1 X20.805 Y14.726 F4800
G1 E0.0000 F540
G92 E0
G1 X25.159 Y10.372 E1.0367 F1800
G1 X25.490 Y10.235 E1.0970
G1 X181.647 Y10.235 E27.3906
G1 X181.978 Y10.372 E27.4509
G1 X186.331 Y14.726 E28.4876
G1 X186.468 Y15.057 E28.5479
G1 X186.468 Y248.240 E67.8112
G1 X186.468 Y248.252 E67.8133
G1 X186.462 Y248.461 E67.8485
G1 X186.462 Y248.474 E67.8506
G1 X186.318 Y251.026 E68.2810
G1 X186.316 Y251.051 E68.2853
G1 X186.269 Y251.467 E68.3557
G1 X186.266 Y251.492 E68.3599
G1 X185.820 Y254.115 E68.8079
G1 X185.815 Y254.140 E68.8122
G1 X185.722 Y254.547 E68.8826
G1 X185.716 Y254.572 E68.8868
G1 X184.979 Y257.129 E69.3349
G1 X184.972 Y257.153 E69.3391
G1 X184.834 Y257.547 E69.4095
G1 X184.825 Y257.571 E69.4138
G1 X183.806 Y260.029 E69.8618
G1 X183.796 Y260.052 E69.8661
G1 X183.615 Y260.429 E69.9365
G1 X183.603 Y260.451 E69.9407
G1 X182.316 Y262.780 E70.3887
G1 X182.303 Y262.802 E70.3930
G1 X182.081 Y263.156 E70.4634
G1 X182.067 Y263.177 E70.4676
G1 X180.527 Y265.347 E70.9157
G1 X180.512 Y265.367 E70.9199
G1 X180.251 Y265.694 E70.9903
G1 X180.235 Y265.713 E70.9945
G1 X178.462 Y267.697 E71.4426
G1 X178.444 Y267.716 E71.4468
G1 X178.149 Y268.011 E71.5172
G1 X178.130 Y268.029 E71.5215
G1 X176.146 Y269.802 E71.9695
G1 X176.127 Y269.818 E71.9738
G1 X175.800 Y270.079 E72.0442
G1 X175.780 Y270.094 E72.0484
G1 X173.610 Y271.634 E72.4964
G1 X173.589 Y271.648 E72.5007
G1 X173.235 Y271.870 E72.5711
G1 X173.213 Y271.883 E72.5753
G1 X170.884 Y273.170 E73.0234
G1 X170.862 Y273.182 E73.0276
G1 X170.485 Y273.363 E73.0980
G1 X170.462 Y273.373 E73.1023
G1 X168.004 Y274.392 E73.5503
G1 X167.980 Y274.401 E73.5546
G1 X167.586 Y274.539 E73.6250
G1 X167.562 Y274.546 E73.6292
G1 X165.005 Y275.283 E74.0772
G1 X164.980 Y275.289 E74.0815
G1 X164.573 Y275.382 E74.1519
G1 X164.548 Y275.387 E74.1561
G1 X161.925 Y275.833 E74.6042
G1 X161.900 Y275.836 E74.6084
G1 X161.484 Y275.883 E74.6788
G1 X161.459 Y275.885 E74.6831
G1 X158.907 Y276.029 E75.1135
G1 X158.894 Y276.029 E75.1156
G1 X158.685 Y276.035 E75.1508
G1 X158.673 Y276.035 E75.1529
G1 X48.464 Y276.035 E93.7099
G1 X48.451 Y276.035 E93.7120
G1 X48.242 Y276.029 E93.7472
G1 X48.230 Y276.029 E93.7493
G1 X45.677 Y275.885 E94.1797
G1 X45.652 Y275.883 E94.1840
G1 X45.237 Y275.836 E94.2544
G1 X45.212 Y275.833 E94.2586
G1 X42.589 Y275.387 E94.7067
G1 X42.564 Y275.382 E94.7109
G1 X42.156 Y275.289 E94.7813
G1 X42.132 Y275.283 E94.7855
G1 X39.575 Y274.546 E95.2336
G1 X39.551 Y274.539 E95.2378
G1 X39.156 Y274.401 E95.3082
G1 X39.133 Y274.392 E95.3125
G1 X36.674 Y273.373 E95.7605
G1 X36.651 Y273.363 E95.7648
G1 X36.275 Y273.182 E95.8352
G1 X36.252 Y273.170 E95.8394
G1 X33.923 Y271.883 E96.2874
G1 X33.902 Y271.870 E96.2917
G1 X33.548 Y271.648 E96.3621
G1 X33.527 Y271.634 E96.3663
G1 X31.357 Y270.094 E96.8144
G1 X31.336 Y270.079 E96.8186
G1 X31.010 Y269.818 E96.8890
G1 X30.990 Y269.802 E96.8933
G1 X29.006 Y268.029 E97.3413
G1 X28.988 Y268.011 E97.3455
G1 X28.692 Y267.716 E97.4159
G1 X28.675 Y267.697 E97.4202
G1 X26.902 Y265.713 E97.8682
G1 X26.885 Y265.694 E97.8725
G1 X26.625 Y265.367 E97.9429
G1 X26.610 Y265.347 E97.9471
G1 X25.070 Y263.177 E98.3952
G1 X25.056 Y263.156 E98.3994
G1 X24.834 Y262.802 E98.4698
G1 X24.821 Y262.780 E98.4740
G1 X23.534 Y260.451 E98.9221
G1 X23.522 Y260.429 E98.9263
G1 X23.341 Y260.052 E98.9967
G1 X23.330 Y260.029 E99.0010
G1 X22.312 Y257.571 E99.4490
G1 X22.303 Y257.547 E99.4533
G1 X22.165 Y257.153 E99.5237
G1 X22.157 Y257.129 E99.5279
G1 X21.421 Y254.572 E99.9759
G1 X21.414 Y254.547 E99.9802
G1 X21.321 Y254.140 E100.0506
G1 X21.316 Y254.115 E100.0548
G1 X20.871 Y251.492 E100.5029
G1 X20.867 Y251.467 E100.5071
G1 X20.820 Y251.051 E100.5775
G1 X20.818 Y251.026 E100.5818
G1 X20.675 Y248.474 E101.0122
G1 X20.674 Y248.461 E101.0143
G1 X20.668 Y248.252 E101.0495
G1 X20.668 Y248.240 E101.0516
G1 X20.668 Y15.057 E140.3149
G1 X20.805 Y14.726 E140.3751
G92 E0
G1 E-1.0000 F1800
G1 X21.314 Y15.066 F4800
G1 E0.0000 F1800
G92 E0
G1 X25.499 Y10.881 E0.9965 F1800
G1 X25.609 Y10.835 E1.0166
G1 X181.527 Y10.835 E27.2701
G1 X181.638 Y10.881 E27.2902
G1 X185.823 Y15.066 E28.2867
G1 X185.868 Y15.176 E28.3068
G1 X185.868 Y248.236 E67.5492
G1 X185.868 Y248.240 E67.5499
G1 X185.863 Y248.440 E67.5837
G1 X185.862 Y248.444 E67.5844
G1 X185.720 Y250.984 E68.0127
G1 X185.719 Y250.993 E68.0141
G1 X185.674 Y251.391 E68.0817
G1 X185.673 Y251.400 E68.0831
G1 X185.230 Y254.006 E68.5283
G1 X185.228 Y254.014 E68.5297
G1 X185.139 Y254.406 E68.5973
G1 X185.137 Y254.414 E68.5987
G1 X184.405 Y256.954 E69.0439
G1 X184.403 Y256.962 E69.0453
G1 X184.270 Y257.341 E69.1129
G1 X184.267 Y257.349 E69.1143
G1 X183.255 Y259.792 E69.5595
G1 X183.252 Y259.800 E69.5609
G1 X183.078 Y260.161 E69.6285
G1 X183.074 Y260.169 E69.6299
G1 X181.795 Y262.483 E70.0751
G1 X181.791 Y262.490 E70.0765
G1 X181.577 Y262.830 E70.1440
G1 X181.572 Y262.837 E70.1455
G1 X180.042 Y264.993 E70.5906
G1 X180.037 Y265.000 E70.5921
G1 X179.787 Y265.313 E70.6596
G1 X179.782 Y265.320 E70.6610
G1 X178.020 Y267.291 E71.1062
G1 X178.014 Y267.297 E71.1077
G1 X177.730 Y267.581 E71.1752
G1 X177.724 Y267.587 E71.1766
G1 X175.753 Y269.349 E71.6218
G1 X175.746 Y269.354 E71.6233
G1 X175.433 Y269.604 E71.6908
G1 X175.426 Y269.609 E71.6922
G1 X173.270 Y271.139 E72.1374
G1 X173.263 Y271.144 E72.1389
G1 X172.923 Y271.358 E72.2064
G1 X172.916 Y271.362 E72.2078
G1 X170.602 Y272.641 E72.6530
G1 X170.594 Y272.645 E72.6544
G1 X170.233 Y272.819 E72.7220
G1 X170.225 Y272.822 E72.7234
G1 X167.782 Y273.834 E73.1686
G1 X167.774 Y273.837 E73.1700
G1 X167.396 Y273.970 E73.2376
G1 X167.388 Y273.972 E73.2390
G1 X164.847 Y274.704 E73.6842
G1 X164.839 Y274.706 E73.6856
G1 X164.448 Y274.795 E73.7532
G1 X164.439 Y274.797 E73.7546
G1 X161.833 Y275.240 E74.1998
G1 X161.824 Y275.241 E74.2012
G1 X161.426 Y275.286 E74.2688
G1 X161.417 Y275.287 E74.2702
G1 X158.877 Y275.429 E74.6985
G1 X158.873 Y275.430 E74.6992
G1 X158.673 Y275.435 E74.7330
G1 X158.669 Y275.435 E74.7337
G1 X48.468 Y275.435 E93.2892
G1 X48.464 Y275.435 E93.2899
G1 X48.263 Y275.430 E93.3237
G1 X48.259 Y275.429 E93.3244
G1 X45.719 Y275.287 E93.7527
G1 X45.711 Y275.286 E93.7541
G1 X45.312 Y275.241 E93.8217
G1 X45.304 Y275.240 E93.8231
G1 X42.697 Y274.797 E94.2683
G1 X42.689 Y274.795 E94.2697
G1 X42.298 Y274.706 E94.3373
G1 X42.290 Y274.704 E94.3387
G1 X39.749 Y273.972 E94.7839
G1 X39.741 Y273.970 E94.7853
G1 X39.362 Y273.837 E94.8529
G1 X39.354 Y273.834 E94.8543
G1 X36.912 Y272.822 E95.2995
G1 X36.904 Y272.819 E95.3009
G1 X36.542 Y272.645 E95.3685
G1 X36.535 Y272.641 E95.3699
G1 X34.221 Y271.362 E95.8151
G1 X34.214 Y271.358 E95.8165
G1 X33.874 Y271.144 E95.8840
G1 X33.867 Y271.139 E95.8855
G1 X31.711 Y269.609 E96.3307
G1 X31.704 Y269.604 E96.3321
G1 X31.390 Y269.354 E96.3996
G1 X31.384 Y269.349 E96.4010
G1 X29.412 Y267.587 E96.8462
G1 X29.406 Y267.581 E96.8477
G1 X29.122 Y267.297 E96.9152
G1 X29.117 Y267.291 E96.9166
G1 X27.355 Y265.320 E97.3619
G1 X27.349 Y265.313 E97.3633
G1 X27.099 Y265.000 E97.4308
G1 X27.094 Y264.993 E97.4322
G1 X25.564 Y262.837 E97.8774
G1 X25.559 Y262.830 E97.8789
G1 X25.346 Y262.490 E97.9464
G1 X25.342 Y262.483 E97.9478
G1 X24.063 Y260.168 E98.3930
G1 X24.059 Y260.161 E98.3944
G1 X23.885 Y259.800 E98.4620
G1 X23.881 Y259.792 E98.4634
G1 X22.870 Y257.349 E98.9086
G1 X22.867 Y257.341 E98.9100
G1 X22.734 Y256.962 E98.9776
G1 X22.731 Y256.954 E98.9790
G1 X22.000 Y254.414 E99.4242
G1 X21.997 Y254.406 E99.4256
G1 X21.908 Y254.014 E99.4932
G1 X21.906 Y254.006 E99.4946
G1 X21.464 Y251.400 E99.9398
G1 X21.462 Y251.391 E99.9412
G1 X21.418 Y250.993 E100.0088
G1 X21.417 Y250.984 E100.0102
G1 X21.274 Y248.444 E100.4385
G1 X21.274 Y248.440 E100.4392
G1 X21.268 Y248.240 E100.4730
G1 X21.268 Y248.236 E100.4737
G1 X21.268 Y15.176 E139.7161
G1 X21.314 Y15.066 E139.7362
G92 E0
G1 E-1.0000 F1800
; tool H0.750 W1.200
; raft
G1 X26.168 Y17.141 F4800
G1 E0.0000 F1800
G92 E0
G1 X27.574 Y15.735 E0.6695 F450
G1 X179.562 Y15.735 E51.8529
G1 X180.968 Y17.141 E52.5225
G1 X180.968 Y248.169 E130.3232
G1 X180.966 Y248.236 E130.3457
G1 X180.835 Y250.576 E131.1351
G1 X180.820 Y250.710 E131.1805
G1 X180.422 Y253.054 E131.9811
G1 X180.392 Y253.185 E132.0265
G1 X179.734 Y255.470 E132.8271
G1 X179.689 Y255.597 E132.8725
G1 X178.779 Y257.794 E133.6731
G1 X178.721 Y257.915 E133.7185
G1 X177.571 Y259.996 E134.5191
G1 X177.499 Y260.110 E134.5644
G1 X176.123 Y262.049 E135.3651
G1 X176.039 Y262.154 E135.4104
G1 X174.455 Y263.927 E136.2111
G1 X174.360 Y264.022 E136.2564
G1 X172.587 Y265.606 E137.0571
G1 X172.482 Y265.690 E137.1024
G1 X170.543 Y267.066 E137.9031
G1 X170.429 Y267.138 E137.9484
G1 X168.348 Y268.288 E138.7490
G1 X168.227 Y268.346 E138.7944
G1 X166.030 Y269.256 E139.5951
G1 X165.903 Y269.301 E139.6404
G1 X163.618 Y269.959 E140.4410
G1 X163.487 Y269.989 E140.4864
G1 X161.143 Y270.387 E141.2870
G1 X161.009 Y270.402 E141.3324
G1 X158.669 Y270.533 E142.1218
G1 X158.602 Y270.535 E142.1444
G1 X48.535 Y270.535 E179.2105
G1 X48.468 Y270.533 E179.2331
G1 X46.127 Y270.402 E180.0225
G1 X45.993 Y270.387 E180.0679
G1 X43.650 Y269.989 E180.8685
G1 X43.518 Y269.959 E180.9139
G1 X41.234 Y269.301 E181.7145
G1 X41.106 Y269.256 E181.7598
G1 X38.910 Y268.346 E182.5605
G1 X38.788 Y268.288 E182.6059
G1 X36.708 Y267.138 E183.4064
G1 X36.594 Y267.066 E183.4518
G1 X34.655 Y265.690 E184.2525
G1 X34.550 Y265.606 E184.2978
G1 X32.777 Y264.022 E185.0985
G1 X32.681 Y263.927 E185.1438
G1 X31.097 Y262.154 E185.9445
G1 X31.013 Y262.049 E185.9898
G1 X29.637 Y260.110 E186.7905
G1 X29.566 Y259.996 E186.8358
G1 X28.416 Y257.915 E187.6364
G1 X28.357 Y257.794 E187.6818
G1 X27.448 Y255.597 E188.4824
G1 X27.403 Y255.470 E188.5278
G1 X26.745 Y253.185 E189.3284
G1 X26.715 Y253.054 E189.3738
G1 X26.317 Y250.710 E190.1744
G1 X26.302 Y250.576 E190.2198
G1 X26.170 Y248.236 E191.0092
G1 X26.168 Y248.169 E191.0317
G1 X26.168 Y17.141 E268.8324
G92 E0
G1 E-1.0000 F1800
G1 X27.368 Y19.707 F4800
G1 E0.0000 F1800
G92 E0
G1 X179.768 Y19.707 E51.3221 F450
