; G-Code generated by Simplify3D(R) Version 4.0.1
; Jul 24, 2024 at 11:47:50 AM
; Settings Summary
;   processName,Process1
;   applyToModels,23 v1
;   profileName,Default (modified)
;   profileVersion,2017-03-01 08:00:00
;   baseProfile,
;   printMaterial,PLA
;   printQuality,Medium
;   printExtruders,
;   extruderName,Primary Extruder
;   extruderToolheadNumber,0
;   extruderDiameter,0.6
;   extruderAutoWidth,1
;   extruderWidth,0.72
;   extrusionMultiplier,0.9
;   extruderUseRetract,1
;   extruderRetractionDistance,1
;   extruderExtraRestartDistance,0
;   extruderRetractionZLift,0
;   extruderRetractionSpeed,1800
;   extruderUseCoasting,0
;   extruderCoastingDistance,0.2
;   extruderUseWipe,0
;   extruderWipeDistance,5
;   primaryExtruder,0
;   layerHeight,0.2
;   topSolidLayers,3
;   bottomSolidLayers,3
;   perimeterOutlines,2
;   printPerimetersInsideOut,1
;   startPointOption,2
;   startPointOriginX,0
;   startPointOriginY,0
;   sequentialIslands,0
;   spiralVaseMode,0
;   firstLayerHeightPercentage,90
;   firstLayerWidthPercentage,100
;   firstLayerUnderspeed,0.5
;   useRaft,1
;   raftExtruder,0
;   raftTopLayers,3
;   raftBaseLayers,2
;   raftOffset,3
;   raftSeparationDistance,0.14
;   raftTopInfill,100
;   aboveRaftSpeedMultiplier,0.3
;   useSkirt,1
;   skirtExtruder,0
;   skirtLayers,1
;   skirtOutlines,2
;   skirtOffset,4
;   usePrimePillar,0
;   primePillarExtruder,999
;   primePillarWidth,12
;   primePillarLocation,7
;   primePillarSpeedMultiplier,1
;   useOozeShield,0
;   oozeShieldExtruder,999
;   oozeShieldOffset,2
;   oozeShieldOutlines,1
;   oozeShieldSidewallShape,1
;   oozeShieldSidewallAngle,30
;   oozeShieldSpeedMultiplier,1
;   infillExtruder,0
;   internalInfillPattern,Rectilinear
;   externalInfillPattern,Rectilinear
;   infillPercentage,25
;   outlineOverlapPercentage,15
;   infillExtrusionWidthPercentage,100
;   minInfillLength,5
;   infillLayerInterval,1
;   internalInfillAngles,45,-45
;   overlapInternalInfillAngles,0
;   externalInfillAngles,45,-45
;   generateSupport,0
;   supportExtruder,0
;   supportInfillPercentage,30
;   supportExtraInflation,0
;   supportBaseLayers,0
;   denseSupportExtruder,0
;   denseSupportLayers,0
;   denseSupportInfillPercentage,70
;   supportLayerInterval,1
;   supportHorizontalPartOffset,0.3
;   supportUpperSeparationLayers,1
;   supportLowerSeparationLayers,1
;   supportType,0
;   supportGridSpacing,4
;   maxOverhangAngle,45
;   supportAngles,0
;   temperatureName,Primary Extruder
;   temperatureNumber,0
;   temperatureSetpointCount,1
;   temperatureSetpointLayers,1
;   temperatureSetpointTemperatures,190
;   temperatureStabilizeAtStartup,1
;   temperatureHeatedBed,0
;   temperatureRelayBetweenLayers,0
;   temperatureRelayBetweenLoops,0
;   fanLayers,1,2
;   fanSpeeds,0,100
;   blipFanToFullPower,0
;   adjustSpeedForCooling,1
;   minSpeedLayerTime,15
;   minCoolingSpeedSlowdown,20
;   increaseFanForCooling,0
;   minFanLayerTime,45
;   maxCoolingFanSpeed,100
;   increaseFanForBridging,0
;   bridgingFanSpeed,100
;   use5D,1
;   relativeEdistances,0
;   allowEaxisZeroing,1
;   independentExtruderAxes,0
;   includeM10123,0
;   stickySupport,1
;   applyToolheadOffsets,0
;   gcodeXoffset,0
;   gcodeYoffset,0
;   gcodeZoffset,0
;   overrideMachineDefinition,0
;   machineTypeOverride,0
;   strokeXoverride,200
;   strokeYoverride,200
;   strokeZoverride,200
;   originOffsetXoverride,0
;   originOffsetYoverride,0
;   originOffsetZoverride,0
;   homeXdirOverride,-1
;   homeYdirOverride,-1
;   homeZdirOverride,-1
;   flipXoverride,1
;   flipYoverride,-1
;   flipZoverride,1
;   toolheadOffsets,0,0|0,0|0,0|0,0|0,0|0,0
;   overrideFirmwareConfiguration,0
;   firmwareTypeOverride,RepRap (Marlin/Repetier/Sprinter)
;   GPXconfigOverride,r2
;   baudRateOverride,115200
;   overridePrinterModels,0
;   printerModelsOverride
;   startingGcode,G28 ; home all axes
;   layerChangeGcode,
;   retractionGcode,
;   toolChangeGcode,
;   endingGcode,M104 S0 ; turn off extruder,M140 S0 ; turn off bed,M84 ; disable motors
;   exportFileFormat,gcode
;   celebration,0
;   celebrationSong,Random Song
;   postProcessing,
;   defaultSpeed,3600
;   outlineUnderspeed,0.5
;   solidInfillUnderspeed,0.8
;   supportUnderspeed,0.8
;   rapidXYspeed,4800
;   rapidZspeed,1000
;   minBridgingArea,50
;   bridgingExtraInflation,0
;   bridgingExtrusionMultiplier,1
;   bridgingSpeedMultiplier,1
;   useFixedBridgingAngle,0
;   fixedBridgingAngle,0
;   applyBridgingToPerimeters,0
;   filamentDiameters,1.75|1.75|1.75|1.75|1.75|1.75
;   filamentPricesPerKg,46|46|46|46|46|46
;   filamentDensities,1.25|1.25|1.25|1.25|1.25|1.25
;   useMinPrintHeight,0
;   minPrintHeight,0
;   useMaxPrintHeight,0
;   maxPrintHeight,0
;   useDiaphragm,0
;   diaphragmLayerInterval,20
;   robustSlicing,1
;   mergeAllIntoSolid,0
;   onlyRetractWhenCrossingOutline,1
;   retractBetweenLayers,1
;   useRetractionMinTravel,0
;   retractionMinTravel,3
;   retractWhileWiping,0
;   onlyWipeOutlines,1
;   avoidCrossingOutline,0
;   maxMovementDetourFactor,3
;   toolChangeRetractionDistance,12
;   toolChangeExtraRestartDistance,-0.5
;   toolChangeRetractionSpeed,600
;   externalThinWallType,0
;   internalThinWallType,2
;   thinWallAllowedOverlapPercentage,10
;   singleExtrusionMinLength,1
;   singleExtrusionMinPrintingWidthPercentage,50
;   singleExtrusionMaxPrintingWidthPercentage,200
;   singleExtrusionEndpointExtension,0.2
;   horizontalSizeCompensation,0
G90
M82
M106 S0
M104 S190 T0
M109 S190 T0
G28 ; home all axes
G92 E0
G1 E-1.0000 F1800
G1 Z0.675 F1000
; process Process1
; layer 1, Z = 0.675
T0
; tool H0.750 W0.720
; skirt
G1 X16.920 Y-53.114 F4800
G1 E0.0000 F540
G92 E0
G1 X17.084 Y-53.511 E0.0868 F1800
G1 X21.489 Y-57.916 E1.3453
G1 X21.886 Y-58.080 E1.4322
G1 X178.114 Y-58.080 E32.9990
G1 X178.511 Y-57.916 E33.0858
G1 X182.916 Y-53.511 E34.3443
G1 X183.080 Y-53.114 E34.4311
G1 X183.080 Y180.106 E81.5545
G1 X183.080 Y180.121 E81.5576
G1 X183.074 Y180.332 E81.6003
G1 X183.073 Y180.347 E81.6034
G1 X182.930 Y182.904 E82.1206
G1 X182.927 Y182.934 E82.1268
G1 X182.880 Y183.354 E82.2122
G1 X182.876 Y183.384 E82.2184
G1 X182.429 Y186.012 E82.7570
G1 X182.423 Y186.042 E82.7631
G1 X182.329 Y186.455 E82.8486
G1 X182.321 Y186.484 E82.8548
G1 X181.583 Y189.046 E83.3934
G1 X181.574 Y189.075 E83.3995
G1 X181.434 Y189.474 E83.4850
G1 X181.424 Y189.502 E83.4912
G1 X180.403 Y191.965 E84.0298
G1 X180.391 Y191.993 E84.0360
G1 X180.207 Y192.374 E84.1214
G1 X180.194 Y192.401 E84.1276
G1 X178.904 Y194.734 E84.6662
G1 X178.889 Y194.760 E84.6723
G1 X178.663 Y195.119 E84.7578
G1 X178.647 Y195.144 E84.7640
G1 X177.104 Y197.318 E85.3026
G1 X177.086 Y197.342 E85.3087
G1 X176.822 Y197.673 E85.3942
G1 X176.802 Y197.696 E85.4003
G1 X175.026 Y199.684 E85.9390
G1 X175.005 Y199.706 E85.9451
G1 X174.706 Y200.005 E86.0306
G1 X174.684 Y200.026 E86.0367
G1 X172.696 Y201.802 E86.5754
G1 X172.673 Y201.822 E86.5815
G1 X172.342 Y202.086 E86.6670
G1 X172.318 Y202.104 E86.6731
G1 X170.144 Y203.647 E87.2118
G1 X170.119 Y203.663 E87.2179
G1 X169.760 Y203.889 E87.3034
G1 X169.734 Y203.904 E87.3095
G1 X167.401 Y205.193 E87.8482
G1 X167.374 Y205.207 E87.8543
G1 X166.993 Y205.391 E87.9398
G1 X166.965 Y205.403 E87.9459
G1 X164.502 Y206.424 E88.4846
G1 X164.474 Y206.434 E88.4907
G1 X164.075 Y206.574 E88.5762
G1 X164.046 Y206.583 E88.5823
G1 X161.484 Y207.321 E89.1210
G1 X161.455 Y207.329 E89.1271
G1 X161.042 Y207.423 E89.2126
G1 X161.012 Y207.429 E89.2187
G1 X158.384 Y207.876 E89.7574
G1 X158.354 Y207.880 E89.7635
G1 X157.934 Y207.927 E89.8490
G1 X157.904 Y207.930 E89.8551
G1 X155.347 Y208.073 E90.3724
G1 X155.332 Y208.074 E90.3754
G1 X155.121 Y208.080 E90.4182
G1 X155.106 Y208.080 E90.4212
G1 X44.894 Y208.080 E112.6901
G1 X44.879 Y208.080 E112.6931
G1 X44.668 Y208.074 E112.7359
G1 X44.653 Y208.073 E112.7389
G1 X42.096 Y207.930 E113.2562
G1 X42.066 Y207.927 E113.2623
G1 X41.646 Y207.880 E113.3478
G1 X41.616 Y207.876 E113.3539
G1 X38.988 Y207.429 E113.8926
G1 X38.958 Y207.423 E113.8987
G1 X38.545 Y207.329 E113.9842
G1 X38.516 Y207.321 E113.9903
G1 X35.954 Y206.583 E114.5290
G1 X35.925 Y206.574 E114.5351
G1 X35.526 Y206.434 E114.6206
G1 X35.498 Y206.424 E114.6267
G1 X33.035 Y205.403 E115.1654
G1 X33.007 Y205.391 E115.1715
G1 X32.626 Y205.207 E115.2570
G1 X32.599 Y205.194 E115.2631
G1 X30.266 Y203.904 E115.8018
G1 X30.240 Y203.889 E115.8079
G1 X29.881 Y203.663 E115.8934
G1 X29.856 Y203.647 E115.8995
G1 X27.682 Y202.104 E116.4382
G1 X27.658 Y202.086 E116.4443
G1 X27.327 Y201.822 E116.5298
G1 X27.304 Y201.802 E116.5359
G1 X25.316 Y200.026 E117.0746
G1 X25.294 Y200.005 E117.0807
G1 X24.995 Y199.706 E117.1662
G1 X24.974 Y199.684 E117.1723
G1 X23.198 Y197.696 E117.7110
G1 X23.178 Y197.673 E117.7171
G1 X22.914 Y197.342 E117.8026
G1 X22.896 Y197.318 E117.8087
G1 X21.353 Y195.144 E118.3474
G1 X21.337 Y195.119 E118.3535
G1 X21.111 Y194.760 E118.4390
G1 X21.096 Y194.734 E118.4451
G1 X19.806 Y192.401 E118.9838
G1 X19.793 Y192.374 E118.9899
G1 X19.609 Y191.993 E119.0754
G1 X19.597 Y191.965 E119.0815
G1 X18.576 Y189.502 E119.6202
G1 X18.566 Y189.474 E119.6263
G1 X18.426 Y189.075 E119.7118
G1 X18.417 Y189.046 E119.7179
G1 X17.679 Y186.484 E120.2566
G1 X17.671 Y186.455 E120.2627
G1 X17.577 Y186.042 E120.3482
G1 X17.571 Y186.012 E120.3543
G1 X17.124 Y183.384 E120.8930
G1 X17.120 Y183.354 E120.8991
G1 X17.073 Y182.934 E120.9846
G1 X17.070 Y182.904 E120.9907
G1 X16.927 Y180.347 E121.5080
G1 X16.926 Y180.332 E121.5110
G1 X16.920 Y180.121 E121.5538
G1 X16.920 Y180.106 E121.5568
G1 X16.920 Y-53.114 E168.6802
G92 E0
G1 E-1.0000 F1800
G1 X17.640 Y-52.971 F4800
G1 E0.0000 F1800
G92 E0
G1 X17.695 Y-53.103 E0.0289 F1800
G1 X21.897 Y-57.305 E1.2296
G1 X22.029 Y-57.360 E1.2585
G1 X177.971 Y-57.360 E32.7675
G1 X178.103 Y-57.305 E32.7964
G1 X182.305 Y-53.103 E33.9971
G1 X182.360 Y-52.971 E34.0260
G1 X182.360 Y180.101 E81.1194
G1 X182.360 Y180.106 E81.1204
G1 X182.354 Y180.307 E81.1611
G1 X182.354 Y180.312 E81.1622
G1 X182.211 Y182.853 E81.6764
G1 X182.210 Y182.863 E81.6784
G1 X182.165 Y183.263 E81.7598
G1 X182.164 Y183.274 E81.7619
G1 X181.721 Y185.882 E82.2964
G1 X181.719 Y185.892 E82.2985
G1 X181.629 Y186.285 E82.3799
G1 X181.627 Y186.294 E82.3819
G1 X180.894 Y188.837 E82.9165
G1 X180.891 Y188.846 E82.9186
G1 X180.758 Y189.227 E83.0000
G1 X180.755 Y189.236 E83.0020
G1 X179.742 Y191.680 E83.5366
G1 X179.738 Y191.690 E83.5386
G1 X179.563 Y192.053 E83.6200
G1 X179.558 Y192.062 E83.6221
G1 X178.279 Y194.377 E84.1567
G1 X178.274 Y194.386 E84.1587
G1 X178.059 Y194.727 E84.2401
G1 X178.054 Y194.735 E84.2421
G1 X176.523 Y196.893 E84.7767
G1 X176.517 Y196.901 E84.7788
G1 X176.265 Y197.216 E84.8602
G1 X176.259 Y197.224 E84.8622
G1 X174.496 Y199.197 E85.3968
G1 X174.489 Y199.204 E85.3988
G1 X174.204 Y199.489 E85.4803
G1 X174.197 Y199.496 E85.4823
G1 X172.224 Y201.259 E86.0169
G1 X172.216 Y201.265 E86.0189
G1 X171.901 Y201.517 E86.1003
G1 X171.893 Y201.523 E86.1024
G1 X169.735 Y203.054 E86.6369
G1 X169.727 Y203.059 E86.6390
G1 X169.386 Y203.274 E86.7204
G1 X169.377 Y203.279 E86.7224
G1 X167.062 Y204.558 E87.2570
G1 X167.053 Y204.563 E87.2590
G1 X166.690 Y204.738 E87.3405
G1 X166.680 Y204.742 E87.3425
G1 X164.236 Y205.755 E87.8771
G1 X164.227 Y205.758 E87.8791
G1 X163.846 Y205.891 E87.9605
G1 X163.837 Y205.894 E87.9626
G1 X161.294 Y206.627 E88.4971
G1 X161.285 Y206.629 E88.4992
G1 X160.892 Y206.719 E88.5806
G1 X160.882 Y206.721 E88.5826
G1 X158.273 Y207.164 E89.1172
G1 X158.263 Y207.165 E89.1193
G1 X157.863 Y207.210 E89.2007
G1 X157.853 Y207.211 E89.2027
G1 X155.312 Y207.354 E89.7169
G1 X155.307 Y207.354 E89.7179
G1 X155.106 Y207.360 E89.7586
G1 X155.101 Y207.360 E89.7597
G1 X44.899 Y207.360 E112.0265
G1 X44.894 Y207.360 E112.0275
G1 X44.693 Y207.354 E112.0682
G1 X44.688 Y207.354 E112.0692
G1 X42.147 Y207.211 E112.5834
G1 X42.137 Y207.210 E112.5855
G1 X41.736 Y207.165 E112.6669
G1 X41.727 Y207.164 E112.6689
G1 X39.118 Y206.721 E113.2035
G1 X39.108 Y206.719 E113.2055
G1 X38.715 Y206.629 E113.2869
G1 X38.706 Y206.627 E113.2890
G1 X36.163 Y205.894 E113.8236
G1 X36.154 Y205.891 E113.8256
G1 X35.773 Y205.758 E113.9070
G1 X35.764 Y205.755 E113.9091
G1 X33.320 Y204.742 E114.4436
G1 X33.310 Y204.738 E114.4457
G1 X32.947 Y204.563 E114.5271
G1 X32.938 Y204.558 E114.5291
G1 X30.623 Y203.279 E115.0637
G1 X30.614 Y203.274 E115.0657
G1 X30.273 Y203.059 E115.1471
G1 X30.265 Y203.054 E115.1492
G1 X28.107 Y201.523 E115.6838
G1 X28.099 Y201.517 E115.6858
G1 X27.784 Y201.265 E115.7672
G1 X27.776 Y201.259 E115.7693
G1 X25.803 Y199.496 E116.3038
G1 X25.796 Y199.489 E116.3059
G1 X25.511 Y199.204 E116.3873
G1 X25.504 Y199.197 E116.3893
G1 X23.741 Y197.224 E116.9239
G1 X23.735 Y197.216 E116.9260
G1 X23.483 Y196.901 E117.0074
G1 X23.477 Y196.893 E117.0094
G1 X21.946 Y194.735 E117.5440
G1 X21.941 Y194.727 E117.5460
G1 X21.726 Y194.386 E117.6274
G1 X21.721 Y194.377 E117.6295
G1 X20.442 Y192.062 E118.1641
G1 X20.437 Y192.053 E118.1661
G1 X20.262 Y191.690 E118.2475
G1 X20.258 Y191.680 E118.2495
G1 X19.245 Y189.236 E118.7841
G1 X19.242 Y189.227 E118.7862
G1 X19.109 Y188.846 E118.8676
G1 X19.106 Y188.837 E118.8696
G1 X18.373 Y186.294 E119.4042
G1 X18.371 Y186.285 E119.4062
G1 X18.281 Y185.892 E119.4876
G1 X18.279 Y185.882 E119.4897
G1 X17.836 Y183.274 E120.0243
G1 X17.835 Y183.264 E120.0263
G1 X17.789 Y182.863 E120.1077
G1 X17.789 Y182.853 E120.1098
G1 X17.646 Y180.312 E120.6240
G1 X17.646 Y180.307 E120.6250
G1 X17.640 Y180.106 E120.6657
G1 X17.640 Y180.101 E120.6667
G1 X17.640 Y-52.971 E167.7601
G92 E0
G1 E-1.0000 F1800
; tool H0.750 W1.200
; raft
G1 X22.600 Y-50.994 F4800
G1 E0.0000 F1800
G92 E0
G1 X24.006 Y-52.400 E0.6695 F450
G1 X175.994 Y-52.400 E51.8529
G1 X177.400 Y-50.994 E52.5225
G1 X177.400 Y180.034 E130.3232
G1 X177.398 Y180.101 E130.3457
G1 X177.267 Y182.441 E131.1351
G1 X177.252 Y182.575 E131.1805
G1 X176.853 Y184.919 E131.9811
G1 X176.823 Y185.050 E132.0265
G1 X176.165 Y187.335 E132.8271
G1 X176.121 Y187.462 E132.8724
G1 X175.211 Y189.658 E133.6731
G1 X175.152 Y189.780 E133.7185
G1 X174.002 Y191.860 E134.5191
G1 X173.931 Y191.975 E134.5645
G1 X172.555 Y193.913 E135.3651
G1 X172.471 Y194.019 E135.4104
G1 X170.887 Y195.792 E136.2111
G1 X170.792 Y195.887 E136.2564
G1 X169.019 Y197.471 E137.0571
G1 X168.913 Y197.555 E137.1024
G1 X166.974 Y198.931 E137.9031
G1 X166.860 Y199.002 E137.9485
G1 X164.780 Y200.152 E138.7490
G1 X164.658 Y200.211 E138.7944
G1 X162.462 Y201.121 E139.5951
G1 X162.335 Y201.165 E139.6404
G1 X160.050 Y201.823 E140.4411
G1 X159.919 Y201.853 E140.4864
G1 X157.575 Y202.252 E141.2870
G1 X157.441 Y202.267 E141.3324
G1 X155.101 Y202.398 E142.1218
G1 X155.034 Y202.400 E142.1443
G1 X44.966 Y202.400 E179.2106
G1 X44.899 Y202.398 E179.2331
G1 X42.559 Y202.267 E180.0225
G1 X42.425 Y202.252 E180.0679
G1 X40.081 Y201.853 E180.8685
G1 X39.950 Y201.823 E180.9139
G1 X37.665 Y201.165 E181.7145
G1 X37.538 Y201.121 E181.7598
G1 X35.342 Y200.211 E182.5605
G1 X35.220 Y200.152 E182.6059
G1 X33.140 Y199.002 E183.4065
G1 X33.025 Y198.931 E183.4518
G1 X31.086 Y197.555 E184.2525
G1 X30.981 Y197.471 E184.2978
G1 X29.208 Y195.887 E185.0985
G1 X29.113 Y195.792 E185.1438
G1 X27.529 Y194.019 E185.9445
G1 X27.445 Y193.914 E185.9898
G1 X26.069 Y191.975 E186.7905
G1 X25.998 Y191.860 E186.8358
G1 X24.848 Y189.780 E187.6364
G1 X24.789 Y189.658 E187.6818
G1 X23.879 Y187.462 E188.4824
G1 X23.835 Y187.335 E188.5278
G1 X23.177 Y185.050 E189.3284
G1 X23.147 Y184.919 E189.3738
G1 X22.748 Y182.575 E190.1744
G1 X22.733 Y182.441 E190.2198
G1 X22.602 Y180.101 E191.0092
G1 X22.600 Y180.034 E191.0317
